T: Morning Dew, The
M: 4/4
L: 1/8
K: Edor
|:E3B BAFD|EBEB ADFA|E3B BAFD|BcdB ADFA|
E3B BAFD|EBEB ADFA|E3B BAFD|BcdB ADFA||
|:B2 eBgB eB|BcdB ADFA|B2 eBgB eB|dcdB ADFA|
B2 eB eBgB eB|BcdB ADFA|Bdef gfge|dcdB ADFA||
|:BAGF EFGA|B2 GB ADFA|BAGF EFGA|dcdB ADFA|
BAGF EFGA|BDGB ADFA|BAGF EFGA|dcdB ADFA||
